X:156
T:Red Heath
M:C
L:1/8
B:Thompson's Compleat Collection of 200 Favourite Country Dances, vol. 2 (London, 1765)
Z:Transcribed and edited by Flynn Titford-Mock, 2007
Z:abc's:AK/Fiddler's Companion
K:F
cfed "tr"c2 BA | GABc BAGF | cfed "tr"c2 BA | GBAG F4 :: ecgc acgc | ecgc a2g2 |
ecgc acgc | Gc=Bd c4 :: fa af d2 ge | c2 fc A2F2 | f2 af d2 ge | c2 fA F4 :|

